X:338
T:Waterloo
B:Joyce, P. W.; "Old Irish Folk Music and Songs"
R:song air
O:Irish
L:1/4
M:C
K:F
F|\
B>ABc|d>BGE|F/D/C/D/ FF|F2 z _e|dcde|
f>dBc|dff/e/d/e/|c2 z _e|d>cde|f>dBc|
df_e/d/c/B/|G2 z B|AFDC|BGFD|C>DFF|F2 z||
